X: 15322
T: Give Us A Drink Of Water
R: slip jig
M: 9/8
K: Gmajor
GBd gdc BAG|Bcd eAA ABA|GBd gdc BAG|1 BcA BGF G3:|2 BcA BGF GBd||
~g2g efg fed|~g2g efg ~a2a|~g2g bag fed|efg agf ~g2g|
~g2g ~e2e ~f2f|~g2g efg ~a2a|bag agf ged|efg agf gdB||

